packages/rn-bitcoin-icons/svg/outline/mining.svg

<svg width="24" height="24" viewBox="0 0 24 24" fill="none" xmlns="http://www.w3.org/2000/svg">
<path d="M12.2651 3.70309C9.72917 3.47824 7.38425 4.16153 5.84197 5.4923C5.65153 5.65663 5.82289 5.9364 6.06757 5.87805C7.78468 5.46852 9.73866 5.38359 11.772 5.68067L12.2651 3.70309Z" stroke="black" stroke-linecap="round" stroke-linejoin="round"/>
<path d="M15.168 6.52739C17.1029 7.21968 18.7883 8.21203 20.1122 9.37977C20.3009 9.54616 20.5835 9.37959 20.4925 9.14509C19.7555 7.246 18.0058 5.5418 15.6611 4.5498L15.168 6.52739Z" stroke="black" stroke-linecap="round" stroke-linejoin="round"/>
<rect x="12.4812" y="5.93628" width="2" height="5" transform="rotate(14 12.4812 5.93628)" stroke="black" stroke-linecap="round" stroke-linejoin="round"/>
<rect x="10.7865" y="10.6668" width="3" height="9.5" transform="rotate(14 10.7865 10.6668)" stroke="black" stroke-linecap="round" stroke-linejoin="round"/>
<rect x="12.3583" y="3.3291" width="3.5" height="2.75" transform="rotate(14 12.3583 3.3291)" stroke="black" stroke-linecap="round" stroke-linejoin="round"/>
</svg>

<svg xmlns="http://www.w3.org/2000/svg" fill="none" viewBox="0 0 24 24" stroke="currentColor">
  <path stroke-linecap="round" stroke-linejoin="round" d="M12.265 3.703c-2.536-.225-4.88.459-6.423 1.79-.19.164-.02.443.226.385 1.717-.41 3.67-.494 5.704-.197l.493-1.978zM15.168 6.527c1.935.693 3.62 1.685 4.944 2.853.189.166.472 0 .38-.235-.736-1.899-2.486-3.603-4.83-4.595l-.494 1.977zM12.481 5.936l1.94.484-1.209 4.851-1.94-.484zM10.787 10.667l2.91.726L11.4 20.61l-2.911-.726z"/>
  <path stroke-linecap="round" stroke-linejoin="round" d="M12.358 3.329l3.396.847-.665 2.668-3.396-.847z"/>
</svg>
